icon-themes/sifr_svg/cmd/sc_numberformatincdecimals.svg

<svg viewBox="0 0 16 16" xmlns="http://www.w3.org/2000/svg"><path d="m5 1c-1.1 0-2 .9-2 2v5c0 1.1.9 2 2 2h2c1.1 0 2-.9 2-2v-5c0-1.1-.9-2-2-2zm7 0c-1.1 0-2 .9-2 2v5c0 1.1.9 2 2 2h2c1.1 0 2-.9 2-2v-5c0-1.1-.9-2-2-2zm-7 2h2v5h-2zm7 0h2v5h-2zm-12 5v2h2v-2zm9 2v1c0 .2653.0931.53058.28125.71875l.28125.28125h-5.5625v2h5.5625l-.28125.28125c-.18811.18818-.28125.45344-.28125.71875v1h1c.26529 0 .53057-.1.71875-.28125l2-2 .28125-.28125v-.875l-.28125-.28125-2-2c-.18817-.18814-.45344-.28125-.71875-.28125z" fill="#555753"/></svg>

<svg xmlns="http://www.w3.org/2000/svg" viewBox="0 0 16 16">
  <path
     style="fill:#555753"
     d="M 5 1 C 3.9 1 3 1.9 3 3 L 3 8 C 3 9.1 3.9 10 5 10 L 7 10 C 8.1 10 9 9.1 9 8 L 9 3 C 9 1.9 8.1 1 7 1 L 5 1 z M 12 1 C 10.9 1 10 1.9 10 3 L 10 8 C 10 9.1 10.9 10 12 10 L 14 10 C 15.1 10 16 9.1 16 8 L 16 3 C 16 1.9 15.1 1 14 1 L 12 1 z M 5 3 L 7 3 L 7 8 L 5 8 L 5 3 z M 12 3 L 14 3 L 14 8 L 12 8 L 12 3 z M 0 8 L 0 10 L 2 10 L 2 8 L 0 8 z M 9 10 L 9 11 C 9 11.2653 9.0931 11.53058 9.28125 11.71875 L 9.5625 12 L 4 12 L 4 14 L 9.5625 14 L 9.28125 14.28125 C 9.09314 14.46943 9 14.73469 9 15 L 9 16 L 10 16 C 10.26529 16 10.53057 15.9 10.71875 15.71875 L 12.71875 13.71875 L 13 13.4375 L 13 12.5625 L 12.71875 12.28125 L 10.71875 10.28125 C 10.53058 10.09311 10.26531 10 10 10 L 9 10 z "
     />
</svg>
